X:245
T:Reel 245
M:4/4
K:Gmaj
L:1/8
d>G (3GGG G>E (3FGA |BGBd e2d2||B>G (3GGG BGGA (3BAA |BdAG FA2G:||2Bdef gedc|B>A (3AGA G2|d2|d>G (3GGG d2Bd|dgfg edc2|d>G (3GGG d2ef||efge f2ed|g2f>g  (3gfg d>B (3GFG |dGBG AGAG|D>G (3GGG G2Bd|edfa g2dB|
